svgs/sharp-solid/right-left.svg

<svg xmlns="http://www.w3.org/2000/svg" viewBox="0 0 512 512"><!--! Font Awesome Pro 6.6.0 by @fontawesome - https://fontawesome.com License - https://fontawesome.com/license (Commercial License) Copyright 2024 Fonticons, Inc. --><path d="M384 0L512 128 384 256l-32 0 0-96L32 160 0 160 0 96l32 0 320 0 0-96 32 0zM128 256l32 0 0 96 320 0 32 0 0 64-32 0-320 0 0 96-32 0L0 384 128 256z"/></svg>

<svg xmlns="http://www.w3.org/2000/svg" viewBox="0 0 512 512"><!--! Font Awesome Pro 6.4.0 by @fontawesome - https://fontawesome.com License - https://fontawesome.com/license (Commercial License) Copyright 2023 Fonticons, Inc. --><path d="M384 0L512 128 384 256H352V160H32 0V96H32 352V0h32zM128 256h32v96H480h32v64H480 160v96H128L0 384 128 256z"/></svg>
